src/images/mobile/header/hype-logo.svg

<svg width="91" height="26" viewBox="0 0 91 26" fill="none" xmlns="http://www.w3.org/2000/svg">
<path d="M66.5751 0.15273L66.5176 0.105002C66.5176 0.105002 64.3416 1.17411 61.4178 1.20275C58.427 1.24093 56.9507 0 56.9507 0L54.6118 3.16915C54.6118 3.16915 56.481 4.29554 59.4431 4.25735C64.6867 4.20963 66.5751 0.15273 66.5751 0.15273ZM28.672 24.475C26.055 23.845 25.7099 23.2054 23.5147 19.874L12.8934 3.89462C11.3693 1.60367 13.574 0.973655 14.1204 0.973655V0.257732H0.978027V0.887744C2.47345 0.887744 4.87953 1.91867 7.39107 5.69875L18.0315 21.7163C19.6228 23.9596 17.4851 24.7327 16.076 24.7327V25.3055H29.1897V24.5418C28.8829 24.5323 28.7008 24.4846 28.672 24.475Z" fill="#000F27"/>
<path d="M16.5934 8.82976L16.996 9.48841L18.942 6.90154C19.0378 6.75835 20.3703 5.19287 21.1276 4.27649C21.1851 4.20012 21.2618 4.14285 21.3289 4.07603C24.243 1.13597 26.6683 0.99279 27.8857 0.84006V0.24823H17.4178V0.782786C19.0762 0.706421 21.4535 1.55598 19.1528 5.17378L16.5934 8.82976ZM45.9937 21.9264V13.1635C45.9937 9.40249 43.0987 7.11154 38.3728 7.11154C34.8068 7.11154 31.9214 8.60066 31.816 8.64839L32.1994 13.0298H32.2761C32.2761 13.0298 36.3406 6.57699 38.9096 7.66519L38.7946 7.60792C38.8713 7.63655 38.948 7.67474 39.0247 7.72246C38.9863 7.70337 38.948 7.68428 38.9 7.66519L39.0247 7.72246C40.012 8.25702 40.7981 9.56477 40.7981 11.8748V13.488C39.7436 13.7267 37.7785 14.223 34.9218 15.1108C30.8765 16.3708 29.6208 18.2608 29.6208 20.7236C29.6208 24.1791 32.1802 25.8401 34.8739 25.8401C38.2098 25.8401 40.0408 23.4346 40.7981 22.1173V25.3055H47.9013V25.2005C47.9205 25.2196 45.9937 24.1696 45.9937 21.9264ZM40.8172 21.3345C40.5201 21.8023 39.5231 23.1196 37.836 23.1196C36.168 23.1196 34.8643 22.2223 34.8643 19.9409C34.8643 16.724 38.948 14.729 40.8172 13.9844V21.3345ZM64.581 7.68428H62.6254L62.6062 7.77974L56.6342 21.2773H56.4041V11.073C56.4137 8.8393 58.3309 7.78928 58.3309 7.78928V7.68428H49.3009V7.78928C49.3009 7.78928 51.2181 8.8393 51.2276 11.073V21.9168C51.2181 24.1505 49.3009 25.2005 49.3009 25.2005V25.3055H55.618L55.6851 25.1051L61.7435 11.5694H62.0023V21.9073C62.0023 24.1505 60.0755 25.2005 60.0755 25.2005V25.3055H69.1056V25.2005C69.1056 25.2005 67.1883 24.1505 67.1788 21.9168V11.0825C67.1788 8.8393 69.1056 7.78928 69.1056 7.78928V7.68428H64.581ZM91 7.78928V7.68428H71.1857V7.78928C71.1857 7.78928 73.1029 8.8393 73.1125 11.073V21.9073C73.1125 24.1505 71.1857 25.191 71.1857 25.191V25.296H80.2157V25.2005C80.2157 25.2005 78.2985 24.1505 78.289 21.9168V8.38111H83.8968V21.9073C83.8872 24.1505 81.9604 25.2005 81.9604 25.2005V25.3055H90.9904V25.2005C90.9904 25.2005 89.0732 24.1505 89.0636 21.9073V11.0825C89.0732 8.8393 91 7.78928 91 7.78928ZM9.7298 19.4541L12.366 14.729L12.0304 14.2612L8.34942 19.3968C5.56947 23.5873 2.09934 24.7041 0.594333 24.7996C0.498473 24.8092 0.412198 24.8092 0.33551 24.8092H0V25.3055H12.2893L12.2797 24.7232C12.0688 24.6946 8.97251 25.1623 9.1163 21.7164C9.15464 20.9527 9.41346 20.1604 9.7298 19.4541Z" fill="#000F27"/>
</svg>

<svg width="91" height="26" fill="none" xmlns="http://www.w3.org/2000/svg"><path d="M66.575.153l-.057-.048s-2.176 1.07-5.1 1.098C58.427 1.24 56.95 0 56.95 0l-2.34 3.17s1.87 1.126 4.832 1.087C64.687 4.21 66.575.153 66.575.153zM28.672 24.475c-2.617-.63-2.962-1.27-5.157-4.601L12.893 3.894c-1.524-2.29.681-2.92 1.227-2.92V.258H.978v.63c1.495 0 3.902 1.03 6.413 4.81l10.64 16.018c1.592 2.244-.546 3.017-1.955 3.017v.572H29.19v-.763a2.156 2.156 0 01-.518-.067z" fill="#000F27"/><path d="M16.593 8.83l.403.658 1.946-2.586c.096-.144 1.428-1.71 2.186-2.626.057-.076.134-.133.2-.2 2.915-2.94 5.34-3.083 6.558-3.236V.248H17.418v.535c1.658-.077 4.035.773 1.735 4.39l-2.56 3.657zm29.4 13.096v-8.762c0-3.762-2.894-6.052-7.62-6.052-3.566 0-6.452 1.489-6.557 1.536l.383 4.382h.077s4.065-6.453 6.634-5.365l-.115-.057c.076.029.153.067.23.114-.039-.019-.077-.038-.125-.057l.125.057c.987.535 1.773 1.843 1.773 4.153v1.613c-1.054.239-3.02.735-5.876 1.623-4.045 1.26-5.301 3.15-5.301 5.613 0 3.455 2.56 5.116 5.253 5.116 3.336 0 5.167-2.405 5.924-3.723v3.188h7.103v-.104c.02.019-1.907-1.031-1.907-3.275zm-5.176-.591c-.297.467-1.294 1.785-2.981 1.785-1.668 0-2.972-.898-2.972-3.18 0-3.216 4.084-5.211 5.953-5.956v7.35zm23.764-13.65h-1.956l-.019.095-5.972 13.497h-.23V11.073c.01-2.234 1.927-3.284 1.927-3.284v-.105H49.3v.105s1.917 1.05 1.927 3.284v10.844C51.218 24.15 49.3 25.2 49.3 25.2v.104h6.317l.067-.2 6.058-13.536h.26v10.338c0 2.244-1.928 3.294-1.928 3.294v.104h9.03v-.104s-1.917-1.05-1.926-3.284V11.082c0-2.243 1.927-3.293 1.927-3.293v-.105H64.58zM91 7.788v-.105H71.186v.105s1.917 1.05 1.926 3.284v10.834c0 2.244-1.926 3.284-1.926 3.284v.105h9.03v-.095s-1.917-1.05-1.927-3.284V8.38h5.608v13.526c-.01 2.244-1.937 3.294-1.937 3.294v.104h9.03v-.104s-1.917-1.05-1.926-3.294V11.082C89.074 8.84 91 7.79 91 7.79zM9.73 19.454l2.636-4.725-.336-.468-3.68 5.136C5.57 23.587 2.1 24.704.593 24.8c-.096.01-.182.01-.258.01H0v.495h12.29l-.01-.582c-.211-.028-3.307.44-3.164-3.007.039-.763.297-1.556.614-2.262z" fill="#000F27"/></svg>
